material/.icons/material/quality-low.svg

<svg xmlns="http://www.w3.org/2000/svg" viewBox="0 0 24 24"><path d="M14.5 13.5h2v-3h-2M18 14c0 .6-.4 1-1 1h-.75v1.5h-1.5V15H14c-.6 0-1-.4-1-1v-4c0-.6.4-1 1-1h3c.6 0 1 .4 1 1m1-6H5a2 2 0 00-2 2v12a2 2 0 002 2h14a2 2 0 002-2V6a2 2 0 00-2-2m-8 9.5V15H6V9h1.5v4.5H11z"/></svg>

<?xml version="1.0" encoding="UTF-8"?><!DOCTYPE svg PUBLIC "-//W3C//DTD SVG 1.1//EN" "http://www.w3.org/Graphics/SVG/1.1/DTD/svg11.dtd"><svg xmlns="http://www.w3.org/2000/svg" xmlns:xlink="http://www.w3.org/1999/xlink" version="1.1" id="mdi-quality-low" width="24" height="24" viewBox="0 0 24 24"><path d="M14.5,13.5H16.5V10.5H14.5M18,14C18,14.6 17.6,15 17,15H16.25V16.5H14.75V15H14C13.4,15 13,14.6 13,14V10C13,9.4 13.4,9 14,9H17C17.6,9 18,9.4 18,10M19,4H5A2,2 0 0,0 3,6V18A2,2 0 0,0 5,20H19A2,2 0 0,0 21,18V6A2,2 0 0,0 19,4M11,13.5V15H6V9H7.5V13.5H11Z" /></svg>
